X:223
T:Steirische Jodler und Taenze Nr. 1 - 48 (21.)
C:traditionell
A:Salzkammergut
S:MIDI erhalten von Christian Amon. Nach einer kopie im besitz von Johann Stoeckl eines manuscriptes. Stoeckl(zitiert von Amon): "diese sammlung wurde 1935 im hause der familie Hohenlohe-Schillingfuerst gefunden. Sie wurde von einem der beiden brueder Steinegger 1866 verfasst. Die originale sind im Ausseer Kammerhofmuseum".
M:3/4
L:1/8
K:G
V:1
GA |\
B2 dg Bg | Af f2 AB | c2 da ca | Bg g2 GA |\
B2 dg Bg | Af f2 AB | c2 da ca | g4 |*
V:2
Bc |\
d2 gb db | da a2 cd | e2 fc' ec' | db b2 Bc |\
d2 gb db | da a2 cd | e2 fc' ec' | b4 |*
